X:73
T:Sociable,The. JBs.073
S:Jas.Blackshaw MS, 1837, N.Shropshire
N:Dotted crotchets in final bar of first 2 parts not visible in MS copy
N:or missing.
A:North Shropshire
Z:Neil Brookes 2006
M:6/8
L:1/8
Q:3/8=120
R:Jig
K:C
c/2d/2|e2 e dcd|c2 c cde|fdf ece|{e}d2 d def|!
{ef}g2 g gfe|{fg}a2 a agf|efe {e}dcd|â€undotted in MSâ€c3c2:|!
|:e|dgb dgb|egcâ€™ egcâ€™|dgb dgb|egcâ€™ egcâ€™|!
afa câ€™ba|geg câ€™ba|gag fed|â€undotted in MSâ€c3c2:|!
|:e|c2e e2g|c2e e2g|d2f B2d|c2e e2g|!
c2e e2g|c2e e2g|d2f B2d|c3c2:|

